dist/svg/screenshot.svg

<!-- Generated by Trend Micro Style Portal -->
<svg version="1.1" xmlns="http://www.w3.org/2000/svg" width="16" height="16" viewBox="0 0 16 16">
  <title>screenshot</title>
  <path fill="rgb(34,34,34)" d="M16 13.5h-2.5v2.5h-1.5v-2.5h-9.5v-9.475h-2.492v-1.5h2.492v-2.525h1.5v2.525h9.508v1.5h-0.008v6.975h-1.5v-6.975h-8v7.975h12z"></path>
</svg>

<svg width="16" height="16" viewBox="0 0 16 16" fill="rgb(34, 34, 34)" xmlns="http://www.w3.org/2000/svg"><title>screenshot</title><path d="M16 13.5H13.5V16H12V13.5H2.5V4.025H0.00799561V2.525H2.5V0H4V2.525H13.508V4.025H13.5V11H12V4.025H4V12H16V13.5Z" fill="rgb(34, 34, 34)" fill-opacity="1.00"/></svg>
